!!!!SEGMENT: pl-wumfc--r266--001-002_paderewski-ignacy-jan--tatra-album-andantino.krn
!!!cenid: 18xx:3154
!!!COM: Paderewski, Ignacy Jan
!!!COM-rismID: pe30029943
!!!CDT: 1860/11/18-1941/06/29
!!!CNT: Polish
!!!GTL: Tatra Album
!!!OTL: Andantino
!!!OMV: 002
!!!OMD: Andantino
!!!PDT:
!!!AGN:
!!!SMS-siglum: PL-Wumfc
!!!SMS-shelfmark: R266
!!!SMS-shelfwork: 001-002 G
!!!SMS-variant:
!!!SMS-altvar:
!!!NIFC-rismSourceID: 1001156225
!!!NIFC-rismChildID: 1001156297
!!!NIFC-islandoraID: pl-wumfc:309
!!!URL-pdf-islandora: https://repozytorium.nifc.pl/islandora/object/pl-wumfc%3A309/datastream/PDF/view
!!!URL-scan: https://polish.musicsources.pl/pl/lokalizacje/galeria/rekopisy/4686 @EN{Scan on Polish Music Sources Website} @PL{Skany w portalu Dziedzictwo Muzyki Polskiej w otwartym dostępie}
!!!IIIF:
!!!ONB-nifc: UWAGA: zbiór zawiera utwory na 4 ręce numerowane I-VI. Nr 002 od skanu 0006
!!!AIN: 2 piano
!!!key:
!!!filter-modern: sic -sq | shed -e "s/:rj/:RJ/L" | shed -k -e "s/([^a-gA-Gn#X-])[<>]/$1/g" | shed -e "s/LO:DY:(a|b|rj)/LO:dy:$1/L" | shed -e "s/-//B" | shed -k -e "s/:TUP:/:tup:/L" | autostem -r | modori -m
**kern	**kern	**dynam	**kern	**kern	**fing	**dynam
*part2	*part2	*part2	*part1	*part1	*part1	*part1
*staff4	*staff3	*	*staff2	*staff1	*	*
*Ipiano	*Ipiano	*	*Ipiano	*Ipiano	*	*
*ICklav	*ICklav	*	*ICklav	*ICklav	*	*
*IGsolo	*IGsolo	*	*IGsolo	*IGsolo	*	*
*I"Clavier	*I"Clavier	*	*I"Clavier	*I"Clavier	*	*
*I'pf	*I'pf	*	*I'pf	*I'pf	*	*
*mI"Pianoforte II	*mI"Pianoforte II	*	*mI"Pianoforte I	*mI"Pianoforte I	*	*
*mI'pf II	*mI'pf II	*	*mI'pf I	*mI'pf I	*	*
*clefF4	*clefF4	*	*clefG2	*clefG2	*	*
*k[f#c#g#d#a#]	*k[f#c#g#d#a#]	*	*k[f#c#g#d#a#]	*k[f#c#g#d#a#]	*	*
*B:	*B:	*	*B:	*B:	*	*
*M3/8	*M3/8	*	*M3/8	*M3/8	*	*
=1	=1	=1	=1	=1	=1	=1
!	!	!	!	!LO:TX:t=P:problem=caudy \ różnie global	!	!
!	!	!LO:MO:null:mod=p	!	!LO:TX:a:t=Andantino:mod=	!	!
4.BBB\	8r	.	4r	(8dd#~\L	.	p
!	!	!LO:MO:null:mod=.	!	!	!	!
.	(8F#\L	p	.	8dd#~\	.	.
.	8B\J	.	8f#/	8dd#~\J	.	.
=2	=2	=2	=2	=2	=2	=2
*	*^	*	*	*	*	*
!	!	!	!	!	!	!	!LO:MO:mod=!null:null
!	!	!	!	!	!	!	!LO:HP:a
4.FF#\	8B/	4.F#\	.	[4.f#/	8cc#~\L	.	<
.	4A#^/)	.	.	.	8gg#~\	.	[
.	.	.	.	.	8ee~\J)	.	.
*	*v	*v	*	*	*	*	*
=3	=3	=3	=3	=3	=3	=3
4.BBB\	(8BL 8F#\	.	8f#/]	(8dd#~\L	.	.
.	8B\	.	4f#/	8dd#~\	.	.
.	8F#\J	.	.	8dd#~\J	.	>
=4	=4	=4	=4	=4	=4	=4
8EE\L	8BL 8G#\	.	(>8g#/L	8cc#\L	.	.
!	!LO:TX:b:t=rit:mod=rit.	!	!	!LO:TX:b:t=rit:mod=rit.	!	!
.	.	.	.	8qdd#/	.	.
8FF#\	8A# 8F# 8C#\	.	8f# 8e/	8cc#\	.	]
8BBB\J	8BJ 8F# 8D#\)	.	8f#J 8d#/)	8b\J)	.	.
=5	=5	=5	=5	=5	=5	=5
4.BBB\	8r	.	4r	8dd#~\L	.	.
.	(8F#\L	p	.	(8dd#~\	.	.
.	8B\J	<	8f#/	8dd#~\J	.	.
=6	=6	=6	=6	=6	=6	=6
*	*^	*	*	*	*	*
!	!	!	!	!	!	!	!LO:MO:mod=!null:null
!	!	!	!	!	!	!	!LO:HP:a
8EE\	8B/L	4.G#\	.	4.g#^/	8cc#\L	.	<[
!	!	!	!	!	!	!	!LO:MO:null:mod=.
4CC#\	8A#/	.	.	.	8gg#\	.	<
.	8e/J)	.	.	.	8ee\J)	.	.
*	*v	*v	*	*	*	*	*
=7	=7	=7	=7	=7	=7	=7
8DD#\L	(8d#L 8F##X\	[	(>8f##X/L	(8dd#~\L	.	.
!	!	!	!LO:TX:t=P:problem=kasownik obok krzyżyka	!	!	!
8GG#\	8B#X 8F#X\	<	8f#nX/	8dd#~\	.	.
8CC#\J	8BnJ 8E#X\	.	8e#X/J	8dd#~\J	.	.
!LO:LB:g=original	!	!	!LO:LB:g=original	!	!	!
=8	=8	=8	=8	=8	=8	=8
4FF#\	8BL 8En\	>	8en/L	8cc#\L	.	>
!	!LO:TX:b:t=rit:mod=rit.	!	!	!LO:TX:b:t=rit:mod=rit.	!	!
.	.	.	.	8qqdd#/	.	]
.	8A# 8F# 8C#\	]	8f# 8e/	8cc#\	.	.
8BBB\	8BJ 8F# 8D#\)	.	8f#J 8d#/)	8b\J)	.	.
=9	=9	=9	=9	=9	=9	=9
!!!OMD:
!!!OMD-mod: Più mosso
!	!LO:TX:a:t=Piumosso.:mod=	!	!	!	!	!
(4.GG#\	16B'\LL	pp	(8g#/L	8r	.	.
.	16A#'\	.	.	.	.	.
.	.	.	.	(16qqb/LL	.	<
!	!	!	!	!LO:TX:a:t=con sentimento.:mod=con sentimento	!	!
!	!	!	!LO:TX:a:t=sempre legato e piano	!LO:TX:a:t=Piu mosso.:mod=	!	!
.	.	.	.	16qqcc#/JJ	.	.
.	16B'\	.	8d#/	(8dd#\L)	.	.
.	16G#'\	.	.	.	.	.
.	16A#'\	.	8g#/J	8dd#\J	.	[[
.	16B'\JJ	.	.	.	.	.
=10	=10	=10	=10	=10	=10	=10
4GGG#\	16c#'\LL	.	8d#/L	8ee\L	.	.
.	16B'\	.	.	.	.	.
.	16A#'\	.	8g#/	8dd#\	.	>
.	16G#'\J	.	.	.	.	.
8GG#\)	8A#^\J	.	8e/J	8cc#\J)	.	]
=11	=11	=11	=11	=11	=11	=11
4.GG#\	16B'\LL	.	8g#/L	8r	.	.
.	16A#'\	<	.	.	.	.
.	.	.	.	16qqb/LL	.	<
.	.	.	.	16qqcc#/JJ	.	.
.	16B'\	.	8d#/	(8dd#~\L	.	.
.	16G#'\	.	.	.	.	.
*	*	*	*	*	*	*^
!	!	!	!	!	!	!	!LO:HP:a
!	!	!	!	!	!	!	!LO:MO:null:mod=.
.	16A#'\	.	8g#/J	8dd#~\J	.	.	<
.	16B'\JJ	.	.	.	.	.	.
=12	=12	=12	=12	=12	=12	=12	=12
!	!	!	!	!	!	!	!LO:MO:null:mod=.
4.GGG#\	16c#'\LL	.	8e/L	8aa#^\L	.	.	[
*	*	*	*	*	*	*v	*v
.	16B'\	.	.	.	.	.
.	16A#'\	.	8a#^>/	8gg#\	.	.
.	16G#'\J	[	.	.	.	.
.	8c#^\J	.	8g#^>/J)	8ee\J)	.	[[
=13	=13	=13	=13	=13	=13	=13
4.GG#\	16d#'\LL	.	8g#/L	8r	.	.
.	16c#'\	<	.	.	.	.
!	!	!	!	!	!	!LO:DY:a
.	.	.	.	(>>16qqb/LL	.	<
!	!	!	!	!LO:TX:b:t=poco crescendo:mod=	!	!
.	.	.	.	16qqcc#/JJ	.	.
.	16B'\	.	8d#/	8dd#\L	.	.
.	16c#'\	.	.	.	.	.
.	16B'\	.	8g#/J	8dd#\J	.	[
.	16A#'\JJ	.	.	.	.	.
!LO:LB:g=original	!	!	!	!	!	!
=14	=14	=14	=14	=14	=14	=14
!	!	!	!	!	!	!LO:DY:a
[4.EE#X\	16G#'\LL	.	8r	[4.bb\	.	sf
.	16A#'\	.	.	.	.	.
.	16G#'\	.	8d#~/L	.	.	.
.	16F#'\	.	.	.	.	.
.	16G#'\	.	8d#~/J	.	.	.
.	16E#X'\JJ	<	.	.	.	.
=15	=15	=15	=15	=15	=15	=15
!	!	!	!	!	!	!LO:DY:a
!	!	!	!	!	!	!LO:DY:a
4.EE#\]	16D#'\LL	.	4.b^/	8bb\L]	.	f >
.	16E#X'\	.	.	.	.	.
.	16G#'\	.	.	8aa#\	.	.
.	16A#'\	.	.	.	.	.
.	16B'\	.	.	8gg#\J)	.	.
.	16c#'\JJ	[	.	.	.	]
=16	=16	=16	=16	=16	=16	=16
!	!LO:TX:b:t=accel.:mod=accelerando	!LO:DY:a	!	!LO:TX:b:t=accelerando	!	!
4.AA# 4.AAA#\	4.d# 4.A# 4.F# 4.D#\	sf	4.a#^/	(16ff#\LL	.	.
.	.	.	.	16aa#\	.	.
.	.	.	.	16ee#X\	.	.
.	.	.	.	16gg#\	.	.
.	.	.	.	16dd#\	.	.
.	.	.	.	16ff#\JJ	.	.
=17	=17	=17	=17	=17	=17	=17
.	.	.	.	(16qqee#X/LL	.	.
.	.	.	.	16qqff#/JJ	.	.
*ped	*	*	*	*	*	*
4.AA# 4.AAA#\	8B 8G# 8E#X 8D# 8BB/	.	(8g#^/L	16ee#y\LL)	.	.
.	.	.	.	16dd#\JJ	.	.
.	8r	.	16d#/L	8.b/L	.	.
.	.	.	16e#X/	.	.	.
.	8r	.	16d#/	.	.	.
.	.	.	16B/JJ)	16g#/Jk)	.	.
=18	=18	=18	=18	=18	=18	=18
4.AA# 4.AAA#\	4.A# 4.F# 4.D# 4.AA#/	.	4.r	(16f#/LL	.	.
.	.	.	.	16a#/	.	.
.	.	.	.	16e#X/	.	.
.	.	.	.	16g#/	.	.
.	.	.	.	16d#/	.	.
.	.	.	.	16f#/JJ	.	.
=19	=19	=19	=19	=19	=19	=19
.	.	.	.	16qqe#X/LL	.	.
!	!LO:TX:b:t=rit.	!	!	!	!	!
.	.	.	.	16qqf#/JJ	.	.
!	!	!	!	!LO:MO:null:mod=!LO&colon;TX&colon;b&colon;t=rit.	!	!
!	!	!	!	!	!	!
4.AA# 4.AAA#\	[8G#L [8E#X [[8AA#/	.	4.r	16e#y/LL	.	.
.	.	.	.	16c##X/J	.	.
!	!	!	!	!LO:TX:b:t=rit.:mod=	!	!
.	16G#]L 16E#] 16AA#/__	.	.	8.A#/J)	.	.
.	16G#/	.	.	.	.	.
.	16E#/	.	.	.	.	.
.	16AA#/JJ]]	.	.	16A#/	.	.
!LO:PB:g=original	!	!	!LO:PB:g=original	!	!	!
*kcancel	*kcancel	*	*kcancel	*kcancel	*	*
=20	=20	=20	=20	=20	=20	=20
*k[b-e-a-]	*k[b-e-a-]	*	*k[b-e-a-]	*k[b-e-a-]	*	*
*M3/8	*M3/8	*	*M3/8	*M3/8	*	*
*	*^	*	*	*	*	*
!	!	!	!	!	!LO:TX:a:t=con passione.:mod=con passione	!	!LO:MO:mod=!null:null
!	!LO:TX:a:t=Con passione.:mod=con passione	!	!	!	!	!	!LO:DY:t=forte.
4.EE-\	16r	8G^>\L	f	4.r	(>8g~/L	.	f
.	(16B- 16BB-/	.	.	.	.	.	.
!	!LO:TX:a:t=marcato il canto	!	!	!	!	!	!
.	16r	8G^>\	.	.	8g~/	.	.
.	16B- 16BB-/	.	.	.	.	.	.
.	16r	8G^>\J	.	.	8g~/J	.	.
.	16B- 16BB-/	.	.	.	.	.	.
=21	=21	=21	=21	=21	=21	=21	=21
!	!	!	!	!	!	!	!LO:HP:a
4.EE-\	16r	8F\L	.	4.r	8f/L	.	<
.	16B- 16BB-/	.	.	.	.	.	.
.	16r	8c\	.	.	8cc/	.	[
.	16d 16D/	.	.	.	.	.	.
.	16r	8A-\J	.	.	8a-/J)	.	.
.	16d 16D/)	.	.	.	.	.	.
=22	=22	=22	=22	=22	=22	=22	=22
4EE-\	16r	8G\L	.	4.r	(>8g~/L	.	.
.	(16e- 16E-/	.	.	.	.	.	.
.	16r	8G\	.	.	8g~/	.	.
.	16d-X 16D-X/	.	.	.	.	.	.
8AA-\	16r	8G\J	.	.	8g~/J	.	.
.	16c 16C/	.	.	.	.	.	.
=23	=23	=23	=23	=23	=23	=23	=23
8DD\L	16r	8F\L	.	4.r	8f/L	.	>
.	16c 16C/	.	.	.	.	.	.
!	!	!	!	!	!LO:TX:b:t=rit:mod=rit.	!	!
.	.	.	.	.	8qqg/	.	]
!	!	!LO:MO:null:mod=!LO&colon;TX&colon;b&colon;t=rit.	!	!	!	!	!
!	!	!	!	!	!	!	!
8GG\	16r	8F\	.	.	8f/	.	.
.	16Bn 16BBn/	.	.	.	.	.	.
8CC\J	16r	8E-\J	.	.	8e-/J)	.	.
.	16c 16C/)	.	.	.	.	.	.
=24	=24	=24	=24	=24	=24	=24	=24
4.FF\	(4.An/	16r	.	4.r	(>8g~/L	.	.
.	.	16F\LL	.	.	.	.	.
.	.	16E-\	.	.	8g~/	.	.
.	.	16D\	.	.	.	.	.
.	.	16E-\	.	.	8g~/J	.	.
.	.	16C\JJ	.	.	.	.	.
!	!	!	!	!LO:LB:g=original	!	!	!
=25	=25	=25	=25	=25	=25	=25	=25
!	!	!	!	!	!	!	!LO:HP:a
4BB-\	16A-X/LL	[4D\	.	4.r	8f/L	.	<
.	16B-/	.	.	.	.	.	.
!	!LO:TUP:b:klamra łukowa cyfra	!	!	!	!	!	!
.	48A-/L	.	.	.	8cc/	.	[
.	48B-/	.	.	.	.	.	.
.	48A-/J	.	.	.	.	.	.
.	16G/	.	.	.	.	.	.
8BBB-\	16A-/	8A- 8D\]	.	.	8a-/J)	.	.
.	16d/JJ)	.	.	.	.	.	.
*	*v	*v	*	*	*	*	*
!LO:LB:g=original	!	!	!	!	!	!
=26	=26	=26	=26	=26	=26	=26
4C 4CC\	(4e- 4G 4E-\	.	4.r	(>8g~/L	.	.
.	.	.	.	8g~/	.	.
8GG 8GGG\	8d 8B- 8D\	.	.	8g~/J	.	.
=27	=27	=27	=27	=27	=27	=27
!	!	!	!	!LO:MO:null:mod=!LO&colon;TX&colon;b&colon;t=rit.	!	!
!	!LO:TX:b:t=rit:mod=rit.	!	!	!	!	!
8AA-L 8AAA-\	8cL 8A- 8C\	.	4.r	8f/L	.	>
!	!	!	!	!LO:TX:b:t=rit:mod=	!	!
.	.	.	.	8qqg/	.	]
8BB- 8BBB-\	8B- 8A- 8D\	.	.	8f/	.	.
!LO:SIC:s=8EE-\J;	!	!	!	!	!	!
8EE-\J	8B-J 8G 8E-;\)	.	.	8e-;/J)	.	.
=28||	=28||	=28||	=28||	=28||	=28||	=28||
!!!OMD:
!!!OMD-mod: Un poco più molto
*k[f#c#g#d#a#]	*k[f#c#g#d#a#]	*	*k[f#c#g#d#a#]	*k[f#c#g#d#a#]	*	*
!	!LO:TX:a:t=Un poco piu molto.:mod=	!	!	!LO:TX:a:t=Un poco piu molto.:mod=	!	!
[<4.DD#\	(8d#L 8D#\	.	8r	4.r	.	.
.	.	.	(16qqf#/LL	.	.	.
.	.	.	16qqg#/JJ	.	.	.
.	8A# 8F#\)	.	(>8a#~>/L)	.	.	.
!	!	!	!	!	!	!LO:HP:b=2
.	(8d#J 8D#\	.	8a#~>/J	.	.	<
=29	=29	=29	=29	=29	=29	=29
4.DD#\]	8BL 8G#\)	.	8b/L	16r	.	.
.	.	.	.	(16ddd#\LL	3	.
.	(8d# 8D#\	.	8a#/	16ccc#\	.	[
.	.	.	.	16bb\	1	.
.	8BJ 8G#\)	.	8g#/J)	16dd#\	2	.
.	.	.	.	16ee#X\JJ	3	.
=30	=30	=30	=30	=30	=30	=30
[4.DD#\	(8d#L 8D#\	.	8r	8ff#\)	4	.
.	.	.	(16qqf#\LL	.	.	.
.	.	.	16qqg#\JJ	.	.	.
!	!	!	!	!	!	!LO:TX:b:t=cres-cen-do:ext2=cd:problem=dynamics with extention lines
.	8A# 8F#\)	.	(8a#/L)	4r	.	<
.	(8d#J 8D#\	.	8a#/J	.	.	.
=31	=31	=31	=31	=31	=31	=31
4.DD#\]	8BL 8G#\)	.	8ee#X/L	(16ggg#\LL	4	.
.	.	.	.	16ddd#\	.	.
.	(8d# 8D#\	.	8dd#/	16bb\	1	.
.	.	.	.	16gg#\	2	.
.	8BJ 8G#\)	.	8b/J)	16dd#\	2	.
.	.	.	.	16ee#X\JJ	3	.
!LO:LB:g=original	!	!	!	!	!	!
=32	=32	=32	=32	=32	=32	=32
4.DD#\	8d#L 8D#\	.	8r	8ff#\)	.	[
.	.	.	(16qqf#\LL	.	.	.
.	.	.	16qqg#\JJ	.	.	.
.	8A# 8F#\	.	(>8a#/L)	8r	.	f
.	8d#J 8D#\	<	8a#/J	8r	.	.
=33	=33	=33	=33	=33	=33	=33
[4.FF# 4.FFF#\	8r	.	[4.ff#^>/	(16aaa#\LL	4	.
.	.	.	.	16fff#\	2	.
.	8A#L 8F#\~	.	.	16eee#X\	3	.
.	.	.	.	16ddd#\	4	.
.	8A#J 8F#\~	.	.	16aa#\	2	.
.	.	[	.	16ddd#\JJ	5	.
=34	=34	=34	=34	=34	=34	=34
4.FF#] 4.FFF#\	4.f#^ 4.A# 4.F#\	f	8ff#/L]	16ccc#\LL	4	.
.	.	.	.	16aa#\	3	.
.	.	.	8ee#X~/	16gg#\	2	.
.	.	.	.	16aa#\	3	.
.	.	.	8dd#~/J)	16bb\	1	.
.	.	.	.	16ccc#\JJ)	2	.
=35	=35	=35	=35	=35	=35	=35
*	*^	*	*	*	*	*
!	!	!LO:MO:null:mod=!LO&colon;TX&colon;b&colon;t=accelerando e crescendo	!	!	!	!	!
!	!	!	!LO:MO:null:mod=.	!	!LO:TX:b:t=accelerando e crescendo.:mod=accelerando e crescendo	!	!
(4FF#\	8e~/L	4A# 4F#\	<	(16dd#\LL	(16ddd#\LL	3	.
.	.	.	.	16ff#\	16fff#\	.	.
.	8e~/	.	.	16cc#\	16ccc#\	.	.
.	.	.	.	16ee\	16eee\	.	.
8C#\	8e~/J	8B 8Gn\	.	16b\	16bb\	.	.
.	.	.	.	16dd#\JJ	16ddd#\JJ	.	.
=36	=36	=36	=36	=36	=36	=36	=36
.	.	.	.	(<16qqcc#/LL	(<16qqccc#/LL	.	.
.	.	.	.	16qqdd#/JJ	16qqddd#/JJ	.	.
4.C# 4.CC#\)	8e/L	4.B 4.G#X\	.	8cc#\))	16ccc#\LL)	.	.
.	.	.	.	.	16bb\	.	.
.	8g#/	.	[	8r	16gg#\	.	.
.	.	.	.	.	16ee\	.	.
.	8e/J	.	.	8r	16b#X\	.	.
.	.	.	.	.	16cc#\JJ)	.	.
=37	=37	=37	=37	=37	=37	=37	=37
4.FF#\	8A#/	8F#\	.	(>4.f#/	(16dd#\LL	.	.
.	.	.	.	.	16ff#\	.	.
.	4ryy	8F#~\L	.	.	16cc#\	.	.
.	.	.	.	.	16ee\	.	.
.	.	8F#~\J	.	.	16bn\	.	.
.	.	.	.	.	16dd#\JJ	.	.
!LO:LB:g=original	!	!	!	!LO:LB:g=original	!	!	!
=38	=38	=38	=38	=38	=38	=38	=38
.	.	.	.	.	(16qqcc#/LL	.	.
.	.	.	.	.	16qqdd#/JJ	.	.
!	!	!	!LO:MO:null:mod=.	!	!	!	!
[4.C# [4.CC#\	(8G#/L	4.E\	<	4.e/)	16cc#\LL)	.	.
.	.	.	.	.	16b\	.	.
.	8B/	.	.	.	16g#\	.	.
.	.	.	.	.	16a#\	.	.
.	8G#/J)	.	[	.	16b\	.	.
.	.	.	.	.	16dd#\JJ)	.	.
*	*v	*v	*	*	*	*	*
=39	=39	=39	=39	=39	=39	=39
!	!	!LO:HP:t=crescendo.	!	!LO:TX:a:t=rubato	!	!
!	!	!LO:MO:null:mod=.	!	!	!	!
4.C#] 4.CC#\]	[8E\L	<	4.r	(16cc#\LL	.	.
.	.	.	.	16dd#\	.	.
.	[>8G# 8E\_>	.	.	16cc#T\	.	.
.	.	.	.	16b\	.	.
.	8BJ 8G#] 8E\]	.	.	16g#\	.	.
.	.	.	.	16dd#\JJ)	.	.
=40	=40	=40	=40	=40	=40	=40
!	!LO:TX:b:t=molto accelerando e poi veloce	!	!	!LO:TX:b:t=molto accelerando e poi veloce	!	!
*ped	*	*	*	*	*	*
!	!	!	!	!	!	!LO:MO:null:mod=!LO&colon;DY&colon;ed=brack
!	!	!	!	!	!	!
!	!	!	!	!	!	!LO:MO:null:mod=f
[4.C# [4.CC#\	[4.e [4.B [4.G# [4.E\	f	4.r	(16cc#\LL	.	.
.	.	.	.	16dd#\	.	.
.	.	.	.	16g#\	.	.
.	.	.	.	16cc#\	.	.
.	.	.	.	16gg#\	.	.
.	.	.	.	16dd#\JJ	.	.
=41	=41	=41	=41	=41	=41	=41
4.C#_ 4.CC#\_	4.e_ 4.B_ 4.G#_ 4.E\_	.	16cc#\LL	8r	.	.
.	.	.	16dd#\	.	.	.
.	.	.	16gg#\JJ	16r	.	.
.	.	.	8r	16ccc#\LL	.	.
.	.	.	.	16eee\	.	.
.	.	.	16r	16ddd#\JJ	.	.
=42	=42	=42	=42	=42	=42	=42
4.C#_ 4.CC#\_	4.e_ 4.B_ 4.G#_ 4.E\_	.	16ccc#\LL	8r	.	.
.	.	.	16ddd#\	.	.	.
.	.	.	16ggg#\JJ	16r	.	.
*	*	*	*	*8va	*	*
.	.	.	8r	16cccc#\LL	.	.
.	.	.	.	16gggg#\	.	.
.	.	.	16r	16dddd#\JJ	.	.
=43	=43	=43	=43	=43	=43	=43
4.C#_ 4.CC#\_	4.e_ 4.B_ 4.G#_ 4.E\_	.	8r	16cccc#\LL	.	.
.	.	.	.	16dddd#\	.	.
.	.	.	16r	16cccc#\JJ	.	.
*	*	*	*	*X8va	*	*
.	.	.	16ggg#\LL	8r	.	.
.	.	.	16aaa#\	.	.	.
.	.	.	16ggg#\JJ	16r	.	.
!LO:LB:g=original	!	!	!LO:LB:g=original	!	!	!
=44	=44	=44	=44	=44	=44	=44
!	!	!	!	!LO:TX:a:t=loco	!	!
4.C#_ 4.CC#\_	4.e_ 4.B_ 4.G#_ 4.E\_	.	8r	16ccc#\LL	.	.
.	.	.	.	16ddd#\	.	.
.	.	.	16r	16ccc#\JJ	.	.
.	.	.	16gg#\LL	8r	.	.
.	.	.	16aa#\	.	.	.
.	.	.	16gg#\JJ	16r	.	.
=45	=45	=45	=45	=45	=45	=45
4.C#] 4.CC#\]	4.e] 4.B] 4.G#] 4.E\]	.	8r	16cc#\LL	.	.
.	.	.	.	16dd#\	.	.
.	.	.	16r	16cc#\JJ)	.	.
.	.	.	16g#/LL	8r	.	.
.	.	.	16cc#/	.	.	.
*Xped	*	*	*	*	*	*
.	.	.	16a#/JJ	16r	.	.
=46	=46	=46	=46	=46	=46	=46
[4.FF#\	[4.e [4.B [4.F#\	.	4.r	(16g#/LL	.	<
.	.	.	.	16cc#/	.	.
.	.	.	.	16a#/	.	.
.	.	.	.	16g#/	.	.
.	.	.	.	16cc#/	.	.
.	.	.	.	16a#/JJ	.	.
=47	=47	=47	=47	=47	=47	=47
4.FF#\]	4.e] 4.B] 4.F#\]	.	4.r	16g#/LL	.	.
.	.	.	.	16cc#/	.	.
.	.	.	.	16a#/	.	.
.	.	.	.	16g#/	.	.
.	.	.	.	16cc#/	.	.
.	.	.	.	16a#/JJ	.	.
=48	=48	=48	=48	=48	=48	=48
!	!LO:TX:b:t=ritenu:mod=cresc. e ritardando	!	!	!LO:TX:b:t=cus. e. ritardando:mod=cresc. e ritardando	!	!
[4.FF# [4.FFF#\	[4.e [4.A# [4.F#\	.	4.r	16g#/LL	.	[
.	.	.	.	16cc#/	.	.
.	.	.	.	16a#/	.	.
.	.	.	.	16g#/	.	.
.	.	.	.	16cc#/	.	.
.	.	.	.	16a#/JJ	.	.
=49	=49	=49	=49	=49	=49	=49
4.FF#] 4.FFF#\]	4.e] 4.A#] 4.F#\]	.	8r	16g#/LL	.	.
.	.	.	.	16cc#/	.	.
.	.	.	8r	16a#/	.	.
!	!	!	!	!	!	!
.	.	.	.	16g#/JJ	.	.
!	!	!	!LO:TX:a:t=rit:mod=rit.:mod=	!	!	!
.	.	.	8f#^>/	16r	.	.
!	!	!	!	!LO:TX:a:t=rit.:mod=	!	!
.	.	.	.	16ff#/	.	.
!LO:LB:g=original	!	!	!LO:LB:g=original	!	!	!
=50	=50	=50	=50	=50	=50	=50
!!!OMD:
!!!OMD-mod: Tempo I°
*ped	*	*	*	*	*	*
!	!LO:TX:a:t=Tempo I°:mod=	!LO:MO:null:mod=f	!	!LO:TX:a:t=Tempo 1°:mod=	!	!LO:MO:mod=f
&(16BBB^\LL	8r	.	(8dd#~\L	8ddd#~\L	.	ff
*	*	*^	*	*	*	*
16BB\JJ	.	<	.	.	.	.	.
!	!	!	!LO:DY:t=forte	!	!	!	!
!	!	!	!LO:MO:null:mod=.	!	!	!	!
8r	16F#\LL	.	f	8dd#~\	8ddd#~\	.	.
.	16B\	.	.	.	.	.	.
!	!	!	!	!	!LO:TX:b:t=con passione	!	!
8BBB^\	16f# 16d#\	.	.	8dd#~\J	8ddd#~\J	.	.
.	16F#\JJ)&	[	.	.	.	.	.
*	*	*v	*v	*	*	*	*
=51	=51	=51	=51	=51	=51	=51
*ped	*	*	*	*	*	*
(16EE^\LL	8r	.	8cc#\L	8ccc#\L	.	.
16C#\	.	<	.	.	.	.
16E\JJ	16G#\LL	.	8gg#\	8ggg#\	.	.
16r	16c#\	.	.	.	.	.
8AAA#^\	16g# 16e\	.	8ee\J)	8eee\J)	.	.
.	16G#\JJ)	[	.	.	.	.
=52	=52	=52	=52	=52	=52	=52
*ped	*	*	*	*	*	*
(16DD#^\LL	8r	.	(8dd#~\L	(8ddd#~\L	.	.
16AA#\	.	<	.	.	.	.
16D#\JJ	16F##X\LL	.	8dd#~\	8ddd#~\	.	.
16r	16A#\	.	.	.	.	.
8DD#^\	16f##X 16d#\	.	8dd#~\J	8ddd#~\J	.	.
.	16F##\JJ)	[	.	.	.	.
=53	=53	=53	=53	=53	=53	=53
(16FF#^\LL	8r	<	8cc#\L	8ccc#\L	.	.
16C#\JJ	.	.	.	.	.	.
!	!LO:TX:t=P:problem=kasownik i krzyżyk	!	!	!	!	!
.	.	.	8qqdd#/	8qqddd#/	.	.
8r	16F#nX\LL	.	8cc#\	8ccc#\	.	.
.	16G#\	.	.	.	.	.
8EE^\	16c# 16A#\	.	8f#\J)	8ff#\J)	.	.
.	16F#\JJ)	[	.	.	.	.
=54	=54	=54	=54	=54	=54	=54
*	*clefG2	*	*	*	*	*
!	!	!LO:MO:null:mod=ff	!	!	!	!
N(16DD#^\LL	8r	.	(8ff#~\L	(8fff#~\L	.	ff
16BB\	.	.	.	.	.	<
!	!LO:MO:null:mod=!LO&colon;TX&colon;b&colon;t=accel	!	!	!	!	!
!	!	!LO:MO:null:mod=.	!	!LO:TX:b:t=accel	!	!
16F#\JJ	16B/LL	ff	8ff#~\	8fff#~\	.	.
16r	16d#/	.	.	.	.	.
8DD#^\	16b 16f#/	.	8ff#~\J	8fff#~\J	.	.
.	16B/JJN)	.	.	.	.	.
=55	=55	=55	=55	=55	=55	=55
*	*	*	*	*	*	*^
!	!	!	!	!	!	!	!LO:HP:a
N(16CC##\LL	8r	.	8ee#X\L	8eee#X\L	.	.	<
16BB\	.	.	.	.	.	.	[[
*	*	*	*	*	*	*v	*v
16E#X\JJ	16B/LL	.	8bb\	8bbb\	.	[
16r	16c##X/	.	.	.	.	.
8CC##X^\	16b 16e#X/	.	8gg#\J)	8ggg#\J)	.	.
.	16B/JJN)	.	.	.	.	.
!LO:LB:g=original	!	!	!LO:PB:g=original	!	!	!
=56	=56	=56	=56	=56	=56	=56
*	*	*^	*	*	*	*
*ped	*	*	*	*	*	*	*
N(16DD#^\LL	8r	.	.	(8ff#~\L	(8fff#~\L	.	p
!	!	!LO:MO:null:mod=p <	!	!	!	!	!
16BB\	.	<	.	.	.	.	.
!	!	!	!LO:DY:t=piano	!	!	!	!
!	!	!	!LO:MO:null:mod=.	!	!	!	!
16F#\JJ	16B/LL	.	p	8ff#~\	8fff#~\	.	.
16r	16d#/	[	.	.	.	.	.
*Xped	*	*	*	*	*	*	*
8DD#^\	16b 16f#/	.	.	8ff#~\J	8fff#~\J	.	.
!	!	!	!	!	!	!	!LO:MO:null:mod=.
.	16B/JJN)	.	.	.	.	.	pp
*	*	*v	*v	*	*	*	*
=57	=57	=57	=57	=57	=57	=57
*ped	*	*	*	*	*	*
!	!	!	!	!	!	!LO:MO:mod=pp <
N(16EE\LL	8r	pp	8ggn\L	8gggn\L	.	<
16BB\	.	.	.	.	.	.
!	!	!	!	!LO:TX:a:t=rit:mod=rit.	!	!
16Gn\JJ	16B/LL	<	8bb\	8bbb\	.	[ >
*Xped	*	*	*	*	*	*
*ped	*	*	*	*	*	*
16r	16e/	.	.	.	.	.
!	!LO:TX:a:t=rit:mod=rit.	!	!	!	!	!
8AAAn\	16b 16gn 16c#^/	[ >	8gg\J)	8ggg\J)	.	]
.	16An/JJN)	]	.	.	.	.
*Xped	*	*	*	*	*	*
=58	=58	=58	=58	=58	=58	=58
*ped	*	*	*	*	*	*
N(16DDn^\LL	8r	.	4ff#\	(4fff#\	.	.
16AAn\	.	<	.	.	.	.
16F#\JJ	16An/LL	.	.	.	.	.
16r	16dn/	.	.	.	.	.
*Xped	*	*	*	*	*	*
8DD^\	16an 16f#/	.	8ff#\	8fff#\	.	.
.	16A/JJN)	.	.	.	.	.
=59	=59	=59	=59	=59	=59	=59
.	.	.	(16qqee/LL	(<16qqeee/LL	.	.
!	!	!	!	!LO:TX:b:t=con sentimento	!	!
.	.	.	16qqff#/JJ	16qqfff#/JJ	.	.
*ped	*	*	*	*	*	*
!	!	!	!LO:SIC:v:s=8ggL)	!	!	!
N(16EE^\LL	8r	.	8gg#\L)	8gggn\L)	.	.
16C#\	.	.	.	.	.	.
16E\JJ	16Gn/LL	[	8ff#\	8fff#\	.	.
16r	16B/	.	.	.	.	.
*Xped	*	*	*	*	*	*
8EE^\	16gn 16c#/	.	8ee\J	8eee\J	.	.
.	16G/JJN)	.	.	.	.	.
=60	=60	=60	=60	=60	=60	=60
*ped	*	*	*	*	*	*
N(16FF#^\LL	8r	.	[4dd#\	4ddd#\	.	.
16D#X\JJ	.	.	.	.	.	.
!	!	!	!	!LO:MO:null:mod=!LO&colon;TX&colon;a&colon;t=poco ritard.	!	!
!	!LO:TX:a:t=poco ritar:mod=poco ritard.	!	!	!	!	!
8r	16F#/LL	.	.	.	.	.
.	16B/	.	.	.	.	.
*Xped	*	*	*	*	*	*
8FF#\	16f# 16d#X/	.	8dd#\]	8ff#\	.	.
.	16F#/JJN)	.	.	.	.	.
=61	=61	=61	=61	=61	=61	=61
*	*	*	*	*	*	*^
!	!	!	!	!LO:TX:b:t=rit:mod=	!	!LO:HP:a	!
!	!	!	!	!	!	!LO:MO:null:mod=.	!
4.FF# 4.FFF#\	16r	.	8gn\L	8ggn\L	.	<	<
.	16F#</LL	.	.	.	.	.	.
.	16Gn</	.	8ee\	8eee\	.	[	[
*	*	*	*	*	*	*v	*v
.	16A#</	.	.	.	.	.
.	16f# 16e/	.	8dd#\J	8ddd#\J	.	.
.	16A#<JJ 16F#</	.	.	.	.	.
!LO:LB:g=original	!	!	!LO:LB:g=original	!	!	!
=62	=62	=62	=62	=62	=62	=62
*^	*	*	*	*	*	*
[>4.F#/	[>4.BB [4.BBB\	(>8d#~>/L	.	4b\	4bb\)	.	.
.	.	8d#~>/	.	.	.	.	.
.	.	8d#~>/J	.	8r	([8b^\	.	.
=63	=63	=63	=63	=63	=63	=63	=63
!	!	!LO:MO:mod=!LO&colon;TX&colon;a&colon;t=stringendo	!	!	!LO:MO:null:mod=!LO&colon;TX&colon;a&colon;t=stringendo	!	!
!	!	!LO:TX:b:t=stringendo	!	!	!	!	!
4.F#/]	4.BB] 4.BBB\]	8c#/L	<	4.r	16b\LL]	.	.
.	.	.	.	.	16a#\	.	<
.	.	8g#/	[	.	16b\	.	.
.	.	.	.	.	16b#X\	.	.
!	!	!	!	!	!LO:TX:b:t=stingendo.:mod=	!	!
.	.	8e/J)	.	.	16cc#\	.	.
.	.	.	.	.	16cc##X\JJ	.	.
=64	=64	=64	=64	=64	=64	=64	=64
[>4.F#/	[>4.BB [4.BBB\	8d#~/L	.	4.r	16dd#\LL	.	[
.	.	.	.	.	16ee\	.	.
.	.	8d#~/	.	.	16ee#X\	.	.
.	.	.	.	.	16ff#\	.	.
.	.	8d#~/J	.	.	16gg#\	.	.
.	.	.	.	.	[16bb\JJ	.	.
=65	=65	=65	=65	=65	=65	=65	=65
4.F#/]	4.BB] 4.BBB\]	8c#/L	<	4.r	16bb\LL]	.	>
.	.	.	.	.	16aa#\	.	.
.	.	8g#/	.	.	16bb\	.	.
.	.	.	.	.	16bb#X\	.	.
.	.	8e/J	[	.	16ccc#\	.	.
.	.	.	.	.	16ccc##X\JJ	.	]
*v	*v	*	*	*	*	*	*
=66	=66	=66	=66	=66	=66	=66
!	!	!	!	!	!	!LO:HP:b=2
4.BB 4.BBB\	4.d# 4.B 4.F#</	.	16r	4.ddd#\)	.	<
!	!	!	!LO:TX:a:t=ritardando.:mod=ritardando	!	!	!
.	.	.	(>16e/LL	.	.	.
.	.	.	16e#X/	.	.	.
.	.	.	16f#/	.	.	.
.	.	.	16g#/	.	.	[
.	.	.	16b/JJ	.	.	.
=67	=67	=67	=67	=67	=67	=67
4.FF#\	4.c# 4.A#< 4.F#</	.	8a#/L	16ccc#\LL	.	.
!	!	!	!	!	!	!LO:HP:b=2
.	.	.	.	16ddd#\	.	>
.	.	.	8g#/	16fff#\	.	.
.	.	.	.	16ggg#\	.	.
*	*	*	*	*8va	*	*
.	.	.	8f#/J)	16aaa#\	.	.
.	.	.	.	16cccc#\JJ	.	]
!LO:LB:g=original	!	!	!LO:LB:g=original	!	!	!
=68	=68	=68	=68	=68	=68	=68
*^	*	*	*	*	*	*
!	!	!LO:TX:b:t=morendo.:mod=morendo	!	!	!	!	!
[4.F#/	4.BB 4.BBB\	8d#~>/L	.	4.f#/	[4.ffff#\	.	.
.	.	8d#~>/	.	.	.	.	.
!	!	!	!	!	!LO:TX:b:t=ritardando.:mod=ritardando	!	!
.	.	8d#~>/J	<	.	.	.	.
=69	=69	=69	=69	=69	=69	=69	=69
!	!	!LO:TX:b:t=stringendo	!	!	!	!	!
4.F#/]	4.BB 4.BBB\	8d#/L	.	4.r	4.ffff#] 4.fff#\	.	.
.	.	8g#/	.	.	.	.	.
.	.	8f#/J	[	.	.	.	.
*v	*v	*	*	*	*	*	*
=70	=70	=70	=70	=70	=70	=70
!LO:MO:null:mod=*ped	!LO:MO:mod=*null:null	!LO:DY:a	!	!	!	!LO:DY:a
*	*ped	*	*	*	*	*
4.BB 4.BBB\	[4.f# [4.d# [>4.F#</	p	[4.dd#^\	[4.ffff# [4.fff#\	.	pp
=71	=71	=71	=71	=71	=71	=71
*8ba	*	*	*	*	*	*
!LO:MO:null:mod=*Xped	!LO:MO:mod=*null:null	!	!	!	!	!
*	*Xped	*	*	*	*	*
4.BBBB\	4.f#]; 4.d#] 4.F#</]	.	4.dd#;\]	4.ffff#] 4.fff#;\]	.	.
*	*	*	*	*X8va	*	*
==	==	==	==	==	==	==
*-	*-	*-	*-	*-	*-	*-
!!!system-decoration: {(s1,s2)},{(s3,s4)}
!!!RDF**kern: > = above
!!!RDF**kern: < = below
!!LO:MO:ori
!!!RDF**dynam: p = p.
!!!RDF**dynam: pp = pp.
!!!RDF**dynam: mp = mp.
!!!RDF**dynam: f = f.
!!!RDF**dynam: ff = ff.
!!!RDF**dynam: < = cres
!!LO:MO:end
!!!RDF**kern: N = linked
!!!ENC: Anastazja Marusiak
!!!ENC: Leszek Kubiak
!!!END: 2021-11-16
!!!ENC-modern: Andrzej Borzym
!!!END-modern: 2022-08-28
!!!YEC: Copyright 2022 Narodowy Instytut Fryderyka Chopina (https://polishscores.org)
!!!YEM: License CC-BY-4.0 (https://creativecommons.org/licenses/by/4.0)
